static/assets/img/icons/theme/electric/blender.svg

<svg height="24" viewBox="0 0 24 24" width="24" xmlns="http://www.w3.org/2000/svg"><g fill="#000" fill-rule="evenodd"><path d="m17.2024293 13h-2.2024293c-.5522847 0-1 .4477153-1 1s.4477153 1 1 1h1.6419082l-.6407536 2.2862783c-.120994.4317183-.514546.7301368-.9628987.7301368l-7.06956024.0000006c-.64579711 0-1.31246277-1.4376532-1.999997-4.3129595-1.14695618-.7550321-2.96869866-2.7923049-2.96869866-5.1870411 0-3.03756613 1.32212298-5.5 2.95304434-5.5.02396215 0 .04785764.00053155.07168326.00158868.07584129-.02283743 4.2958021-.02394825 12.6598824-.00333245.0903991.00022281.1803505.01270249.2673959.03709795.5317893.14903995.8420689.70096106.6930289 1.23275029l-.2005209.71548043h-4.4445139c-.5522847 0-1 .44771525-1 1s.4477153 1 1 1h3.8839927l-.5605211 2h-3.3234716c-.5522847 0-1 .44771525-1 1 0 .5522847.4477153 1 1 1h2.7629505zm-10.75721091-1.9835849v-6c-.98434811.5-1.47652216 1.13211866-1.47652216 3 0 2.0798043 1.25470148 3 1.47652216 3z"/><path d="m6 19h10c1.1045695 0 2 .8954305 2 2v1.5c0 .2761424-.2238576.5-.5.5h-13c-.27614237 0-.5-.2238576-.5-.5v-1.5c0-1.1045695.8954305-2 2-2zm5 3c.5522847 0 1-.4477153 1-1s-.4477153-1-1-1-1 .4477153-1 1 .4477153 1 1 1z" opacity=".3"/></g></svg>

<svg width="24px" height="24px" viewBox="0 0 24 24" version="1.1" xmlns="http://www.w3.org/2000/svg" xmlns:xlink="http://www.w3.org/1999/xlink">
    <title>Icon For Blender</title>
    <g stroke="none" stroke-width="1" fill="none" fill-rule="evenodd">
        <path d="M17.2024293,13 L15,13 C14.4477153,13 14,13.4477153 14,14 C14,14.5522847 14.4477153,15 15,15 L16.6419082,15 L16.0011546,17.2862783 C15.8801606,17.7179966 15.4866086,18.0164151 15.0382559,18.0164151 L7.96869566,18.0164157 C7.32289855,18.0164157 6.65623289,16.5787625 5.96869866,13.7034562 C4.82174248,12.9484241 3,10.9111513 3,8.5164151 C3,5.47884897 4.32212298,3.0164151 5.95304434,3.0164151 C5.97700649,3.0164151 6.00090198,3.01694665 6.0247276,3.01800378 C6.10056889,2.99516635 10.3205297,2.99405553 18.68461,3.01467133 C18.7750091,3.01489414 18.8649605,3.02737382 18.9520059,3.05176928 C19.4837952,3.20080923 19.7940748,3.75273034 19.6450348,4.28451957 L19.4445139,5 L15,5 C14.4477153,5 14,5.44771525 14,6 C14,6.55228475 14.4477153,7 15,7 L18.8839927,7 L18.3234716,9 L15,9 C14.4477153,9 14,9.44771525 14,10 C14,10.5522847 14.4477153,11 15,11 L17.7629505,11 L17.2024293,13 Z M6.44521839,11.0164151 L6.44521839,5.0164151 C5.46087028,5.5164151 4.96869623,6.14853376 4.96869623,8.0164151 C4.96869623,10.0962194 6.22339771,11.0164151 6.44521839,11.0164151 Z" fill="#000000"></path>
        <path d="M6,19 L16,19 C17.1045695,19 18,19.8954305 18,21 L18,22.5 C18,22.7761424 17.7761424,23 17.5,23 L4.5,23 C4.22385763,23 4,22.7761424 4,22.5 L4,21 C4,19.8954305 4.8954305,19 6,19 Z M11,22 C11.5522847,22 12,21.5522847 12,21 C12,20.4477153 11.5522847,20 11,20 C10.4477153,20 10,20.4477153 10,21 C10,21.5522847 10.4477153,22 11,22 Z" fill="#000000" opacity="0.3"></path>
    </g>
</svg>
